X: 270
T:Gentils galans de France
M:4/4
L:1/4
Q:90
C:trad.
O:France
H:XV eme siecle
Z:S. Piron
K:F
D|F>E DC|F2-G2|F2 z F|A2-AA|A2B2|A>G FA|
GF ED|F2G2|F2 z F|G2 GA|G/2F/2E/2D/2 EE|D2 z||
W:
W:Gentils galans de France qui en la guerre allez
W:Je vous prie qu'il vous plaise, mon ami saluer
W:
W:Comment le saluerai-je, quand point ne le connais
W:Il est bon  connaitre, il est de blanc arm
W:
W:Il porte la croix blanche, les perons dors
W:Et au bout de sa lance un fer d'argent dor.
W:
W:Ne pleurez plus la belle, car il est trpass:
W:Il est mort en Bretagne, les Bretons l'ont tu.
W:
W:Je veux faire sa fosse,  l'ore d'un vert pr,
W:Et veux chanter sa messe  quatre cordeliers.
W:
W: From "Falaleiro" http://home.t-online.de/home/pheld/homepage.htm
